X: 7
T: Minuet
C: Michael Dabney
R: minuet
B: Michael Dabney "Twelve Minuets and Twelve Dances" p.4 #1
S: http://imslp.org/wiki/12_Minuets_and_12_Dances_(Dabney,_Michael)
Z: 2015 John Chambers <jc:trillian.mit.edu>
N: Bar 14 has two odd "long dash" marks above the notes; it's not obvious what this means.
M: 3/4
L: 1/8
K: Bb
% - - - - - - - - - - - - - - - - - - - - - - - - -
% Voice 1 produces mostly 4- or 8-bar staffs.
V: 1
|:\
[B2D2] B,>CDE | F>GAF B2 | GedcBA | {A2}B6 |\
E2 g4 |  (gf)(ed)(cB) | ABcded | d2 [c4F4] :|
|:\
[A3F3] GAB | c>Bc>de>d | gfedcB | ABcA F2 |\
GEGBeG | FDFBdF | Ggfedc | {c2}[B6D6] :|
% - - - - - - - - - - - - - - - - - - - - - - - - -
% Voice 2 preserves the staff breaks in the book.
V: 2 clef=bass middle=d
|:\
B6 | z2 f2 "6"d2 | e2 f2 F2 | B2 BcdB |\
"6"g4 e2 | d2 "6"c2 B2 | f2 z2 B2 | "6;4"f2 "3"F4 :|
|:\
f2 f2 f2 | f4 z2 | z2 e2 c2 | f2 z2 f2 |\
e2 e2 e2 | "6"d2 "^__"d2 "^__"d2 | e2 "6;4"f2 "3"F2 | G6 :|
% - - - - - - - - - - - - - - - - - - - - - - - - -

%%sep 1 1 500
%%sep 1 1 500
